svgs/rustdesk.svg

<svg width="192" height="192" viewBox="0 0 192 192" fill="none" xmlns="http://www.w3.org/2000/svg">
<path d="M114.795 56.5517C98.4799 46.3901 76.7453 48.3965 62.5709 62.5709C48.3965 76.7453 46.3901 98.4799 56.5517 114.795L36.3042 135.042C15.3132 107.423 17.425 67.8542 42.6396 42.6396C67.54 17.7392 106.439 15.3694 134.004 35.5303L134.978 36.3681L114.795 56.5517Z" stroke="black" stroke-width="12" stroke-linejoin="round"/>
<path d="M129.429 129.429C143.765 115.093 145.654 93.0247 135.097 76.6508L155.179 56.5688L156.085 57.4748C176.66 85.0687 174.418 124.303 149.36 149.36C123.989 174.731 84.0854 176.712 56.4453 155.302L76.6508 135.097C93.0247 145.654 115.093 143.765 129.429 129.429Z" stroke="black" stroke-width="12" stroke-linejoin="round"/>
</svg>

<svg xmlns="http://www.w3.org/2000/svg" width="192" height="192" fill="none" viewBox="0 0 192 192"><path stroke="#000" stroke-linejoin="round" stroke-width="12" d="M114.795 56.552C98.48 46.39 76.745 48.397 62.571 62.57s-16.18 35.909-6.02 52.224l-20.247 20.247c-20.99-27.619-18.879-67.188 6.336-92.402 24.9-24.9 63.799-27.27 91.364-7.11l.974.838-20.183 20.184Zm14.634 72.877c14.336-14.336 16.225-36.404 5.668-52.778l20.082-20.082.906.906c20.575 27.594 18.333 66.828-6.725 91.885-25.371 25.371-65.275 27.352-92.915 5.942l20.206-20.205c16.374 10.557 38.442 8.668 52.778-5.668Z"/></svg>
